icon/pk/shower-head.svg

<svg viewBox="0 0 48 48" fill="none" xmlns="http://www.w3.org/2000/svg" height="1em" width="1em">
  <path d="M27 20V22H9V20C9 16.6863 13.0294 14 18 14C22.9706 14 27 16.6863 27 20Z" fill="#2F88FF" stroke="black" stroke-width="4" stroke-linecap="round" stroke-linejoin="round"/>
  <path d="M42 44V12.5C42 7.80558 36.6274 4 30 4C23.3726 4 18 7.80558 18 12.5V14" stroke="black" stroke-width="4" stroke-linecap="round" stroke-linejoin="round"/>
  <path d="M18 29L18 28" stroke="black" stroke-width="4" stroke-linecap="round" stroke-linejoin="round"/>
  <path d="M10.1711 28.0303L9.8291 28.97" stroke="black" stroke-width="4" stroke-linecap="round" stroke-linejoin="round"/>
  <path d="M4.17112 43.0303L3.8291 43.97" stroke="black" stroke-width="4" stroke-linecap="round" stroke-linejoin="round"/>
  <path d="M18 44L18 43" stroke="black" stroke-width="4" stroke-linecap="round" stroke-linejoin="round"/>
  <path d="M18 37L18 35" stroke="black" stroke-width="4" stroke-linecap="round" stroke-linejoin="round"/>
  <path d="M7.34224 35.0603L6.6582 36.9397" stroke="black" stroke-width="4" stroke-linecap="round" stroke-linejoin="round"/>
</svg>

<svg width="48" height="48" fill="none" xmlns="http://www.w3.org/2000/svg"><path d="M27 20v2H9v-2c0-3.314 4.03-6 9-6s9 2.686 9 6Z" fill="#2F88FF" stroke="#000" stroke-width="4" stroke-linecap="round" stroke-linejoin="round"/><path d="M42 44V12.5C42 7.806 36.627 4 30 4s-12 3.806-12 8.5V14M18 29v-1M10.171 28.03l-.342.94M4.171 43.03l-.342.94M18 44v-1M18 37v-2M7.342 35.06l-.684 1.88" stroke="#000" stroke-width="4" stroke-linecap="round" stroke-linejoin="round"/></svg>
